assets/fans/fanpill.svg

<svg width="100" height="32" viewBox="0 0 100 32" fill="none" xmlns="http://www.w3.org/2000/svg">
<rect width="100" height="32" rx="16" fill="#FFBB62"/>
<path d="M34.136 21V9.8H41.16V11.176H35.832V14.712H40.248V16.072H35.832V21H34.136ZM44.3581 21.192C43.6861 21.192 43.1315 21.08 42.6941 20.856C42.2568 20.632 41.9315 20.3387 41.7181 19.976C41.5048 19.6027 41.3981 19.1973 41.3981 18.76C41.3981 17.992 41.6968 17.384 42.2941 16.936C42.8915 16.488 43.7448 16.264 44.8541 16.264H46.9341V16.12C46.9341 15.5013 46.7635 15.0373 46.4221 14.728C46.0915 14.4187 45.6595 14.264 45.1261 14.264C44.6568 14.264 44.2461 14.3813 43.8941 14.616C43.5528 14.84 43.3448 15.176 43.2701 15.624H41.5741C41.6275 15.048 41.8195 14.5573 42.1501 14.152C42.4915 13.736 42.9181 13.4213 43.4301 13.208C43.9528 12.984 44.5235 12.872 45.1421 12.872C46.2515 12.872 47.1101 13.1653 47.7181 13.752C48.3261 14.328 48.6301 15.1173 48.6301 16.12V21H47.1581L47.0141 19.64C46.7901 20.0773 46.4648 20.4453 46.0381 20.744C45.6115 21.0427 45.0515 21.192 44.3581 21.192ZM44.6941 19.816C45.1528 19.816 45.5368 19.7093 45.8461 19.496C46.1661 19.272 46.4115 18.9787 46.5821 18.616C46.7635 18.2533 46.8755 17.8533 46.9181 17.416H45.0301C44.3581 17.416 43.8781 17.5333 43.5901 17.768C43.3128 18.0027 43.1741 18.296 43.1741 18.648C43.1741 19.0107 43.3075 19.2987 43.5741 19.512C43.8515 19.7147 44.2248 19.816 44.6941 19.816ZM50.1276 21V13.064H51.6316L51.7596 14.456C52.005 13.9653 52.3623 13.5813 52.8316 13.304C53.3116 13.016 53.861 12.872 54.4796 12.872C55.4396 12.872 56.1916 13.1707 56.7356 13.768C57.2903 14.3653 57.5676 15.256 57.5676 16.44V21H55.8876V16.616C55.8876 15.08 55.2583 14.312 53.9996 14.312C53.3703 14.312 52.8476 14.536 52.4316 14.984C52.0263 15.432 51.8236 16.072 51.8236 16.904V21H50.1276ZM62.2531 21.192C61.2505 21.192 60.4238 20.9467 59.7731 20.456C59.1225 19.9653 58.7491 19.3147 58.6531 18.504H60.3651C60.4505 18.8667 60.6531 19.1813 60.9731 19.448C61.2931 19.704 61.7145 19.832 62.2371 19.832C62.7491 19.832 63.1225 19.7253 63.3571 19.512C63.5918 19.2987 63.7091 19.0533 63.7091 18.776C63.7091 18.3707 63.5438 18.0987 63.2131 17.96C62.8931 17.8107 62.4451 17.6773 61.8691 17.56C61.4211 17.464 60.9731 17.336 60.5251 17.176C60.0878 17.016 59.7198 16.792 59.4211 16.504C59.1331 16.2053 58.9891 15.8053 58.9891 15.304C58.9891 14.6107 59.2558 14.0347 59.7891 13.576C60.3225 13.1067 61.0691 12.872 62.0291 12.872C62.9145 12.872 63.6291 13.0853 64.1731 13.512C64.7278 13.9387 65.0531 14.5413 65.1491 15.32H63.5171C63.4638 14.9787 63.3038 14.712 63.0371 14.52C62.7811 14.328 62.4345 14.232 61.9971 14.232C61.5705 14.232 61.2398 14.3227 61.0051 14.504C60.7705 14.6747 60.6531 14.8987 60.6531 15.176C60.6531 15.4533 60.8131 15.672 61.1331 15.832C61.4638 15.992 61.8958 16.136 62.4291 16.264C62.9625 16.3813 63.4531 16.52 63.9011 16.68C64.3598 16.8293 64.7278 17.0533 65.0051 17.352C65.2825 17.6507 65.4211 18.088 65.4211 18.664C65.4318 19.3893 65.1491 19.992 64.5731 20.472C64.0078 20.952 63.2345 21.192 62.2531 21.192Z" fill="black"/>
</svg>

<svg xmlns="http://www.w3.org/2000/svg" width="100" height="32" fill="none" xmlns:v="https://vecta.io/nano"><rect width="100" height="32" rx="16" fill="#ffbb62"/><path d="M34.136 21V9.8h7.024v1.376h-5.328v3.536h4.416v1.36h-4.416V21h-1.696zm10.222.192c-.672 0-1.227-.112-1.664-.336s-.763-.517-.976-.88a2.41 2.41 0 0 1-.32-1.216c0-.768.299-1.376.896-1.824s1.451-.672 2.56-.672h2.08v-.144c0-.619-.171-1.083-.512-1.392-.331-.309-.763-.464-1.296-.464-.469 0-.88.117-1.232.352-.341.224-.549.56-.624 1.008h-1.696c.053-.576.245-1.067.576-1.472a3.24 3.24 0 0 1 1.28-.944 4.3 4.3 0 0 1 1.712-.336c1.109 0 1.968.293 2.576.88.608.576.912 1.365.912 2.368V21h-1.472l-.144-1.36c-.224.437-.549.805-.976 1.104s-.987.448-1.68.448zm.336-1.376c.459 0 .843-.107 1.152-.32.32-.224.565-.517.736-.88.181-.363.293-.763.336-1.2H45.03c-.672 0-1.152.117-1.44.352-.277.235-.416.528-.416.88 0 .363.133.651.4.864.277.203.651.304 1.12.304zM50.128 21v-7.936h1.504l.128 1.392c.245-.491.603-.875 1.072-1.152a3.14 3.14 0 0 1 1.648-.432c.96 0 1.712.299 2.256.896.555.597.832 1.488.832 2.672V21h-1.68v-4.384c0-1.536-.629-2.304-1.888-2.304-.629 0-1.152.224-1.568.672-.405.448-.608 1.088-.608 1.92V21h-1.696zm12.126.192c-1.003 0-1.829-.245-2.48-.736s-1.024-1.141-1.12-1.952h1.712c.085.363.288.677.608.944.32.256.741.384 1.264.384.512 0 .885-.107 1.12-.32s.352-.459.352-.736c0-.405-.165-.677-.496-.816-.32-.149-.768-.283-1.344-.4-.448-.096-.896-.224-1.344-.384a3.1 3.1 0 0 1-1.104-.672c-.288-.299-.432-.699-.432-1.2 0-.693.267-1.269.8-1.728.533-.469 1.28-.704 2.24-.704.885 0 1.6.213 2.144.64.555.427.88 1.029.976 1.808h-1.632c-.053-.341-.213-.608-.48-.8-.256-.192-.603-.288-1.04-.288-.427 0-.757.091-.992.272-.235.171-.352.395-.352.672s.16.496.48.656c.331.16.763.304 1.296.432.533.117 1.024.256 1.472.416.459.149.827.373 1.104.672s.416.736.416 1.312c.011.725-.272 1.328-.848 1.808-.565.48-1.339.72-2.32.72z" fill="#000"/></svg>
